X: 1805
T: Sultânîyegâh Sazsemâîsi
C: Kânûnî Hacı Ârif Bey
O: Turkey
F: http://compmusic.upf.edu/node/140
N: sultaniyegah--sazsemaisi--aksaksemai----kanuni_haci_arif_bey
N: makam= sultaniyegah
N: form= sazsemaisi
N: usul= aksaksemai = 10/8
M: 10/8
L: 1/16
K: C _B ^c  
Q: 1/4=132
%%MIDI tuningsystem comma53
A4 d2de dccd cBcB A2z2  | ABcd cBAB AGcd ecd4z2  | 
w:  1. HANE  |   | 
f4 f2fg feef edcd e2z2  | d3b aggf feed dcd4z2  | 
w:   |   | 
d4 cd_7/8e3^fd3ed2 c2B2  | c2d2 ^f_7/8eed dccB BAG4z2  | 
w:  TESLİM  |   | 
=c4 c2cd cBBc BAA2 G2F2  | E2F2 G2GF FEED DCD4z2  | 
w:   |   | 
d4 cd_7/8e3^fd3ed2 c2B2  | c2d2 ^f_7/8eed dccB BAG4z2  | 
w:  TESLİM  |   | 
=c4 c2cd cBBc BAA2 G2F2  | E2F2 G2GF FEED DCD4z2  | 
w:   |   | 
f4 =c2c3dcB AGF4z2  | F2G2 A2B2 =c2d2 e2f2 g2a2  | \
w:  2. HANE  |   | 
b4 baa3gg2 abag fed2  | 
w:   | 
e2f2 g2gf feed dcd4z2  | d4 cd_7/8e3^fd3ed2 c2B2  | 
w:   |  TESLİM  | 
c2d2 ^f_7/8eed dccB BAG4z2  | =c4 c2cd cBBc BAA2 G2F2  | 
w:   |   | 
E2F2 G2GF FEED DCD4z2  | d4 cd_7/8e3^fd3ed2 c2B2  | 
w:   |  TESLİM  | 
c2d2 ^f_7/8eed dccB BAG4z2  | =c4 c2cd cBBc BAA2 G2F2  | 
w:   |   | 
E2F2 G2GF FEED DCD4z2  | b4 a2ab agag fga4z2  | 
w:   |  3. HANE  | 
f2_7/8g2 agf2 fgf_1/4e def4=ed  | \
w:   | 
=c4 d2e2 f2g2 a2f2 e2d2  | 
w:   | 
e2f2 g2gf feed dcd4z2  | d4 cd_7/8e3^fd3ed2 c2B2  | 
w:   |  TESLİM  | 
c2d2 ^f_7/8eed dccB BAG4z2  | =c4 c2cd cBBc BAA2 G2F2  | 
w:   |   | 
E2F2 G2GF FEED DCD4z2  | d4 cd_7/8e3^fd3ed2 c2B2  | 
w:   |  TESLİM  | 
c2d2 ^f_7/8eed dccB BAG4z2  | =c4 c2cd cBBc BAA2 G2F2  | 
w:   |   | 
E2F2 G2GF FEED DCD4z2  | z12  | d4c2d4f2  | \
w:   |  |  4. HANE  | 
e4g2f2a4  | 
w:   | 
g2f2e2f2e2d2  | c2d2e2c2B2A2  | d4c2d4f2  | \
w:   |   |   | 
e4g2f2a4  | g2f2e2f2e2d2  | 
w:   |   | 
c2d2e2d6  | d4c2d4f2  | e4g2f2a4  | g2f2e2f2e2d2  | \
w:   |   |   |   | 
c2d2e2c2B2A2  | 
w:   | 
d4c2d4f2  | e4g2f2a4  | g2f2e2f2e2d2  | \
w:   |   |   | 
c2d2e2d6  | a2^g2a2b6  | 
w:   |   | 
e2f2^f2g6  | e2f2^f2g2^g2a2  | b2^g2b2a6  | \
w:   |   |   | 
a2^g2a2b6  | e2f2^f2g6  | 
w:   |   | 
a2b2a2g2f2e2  | d2c2e2d4z2  | a2^g2a2b6  | \
w:   |   |   | 
e2f2^f2g6  | e2f2^f2g2^g2a2  | 
w:   |   | 
b2^g2b2a6  | a2^g2a2b6  | e2f2^f2g6  | a2b2a2g2f2e2  | \
w:   |   |   |   | 
d2c2e2d4z2  | 
w:   | 
z20  | d4 cd_7/8e3^fd3ed2 c2B2  | c2d2 ^f_7/8eed dccB BAG4z2  | 
w:  |  TESLİM  |   | 
=c4 c2cd cBBc BAA2 G2F2  | E2F2 G2GF FEED DCD4z2  | 
w:   |   | 
d4 cd_7/8e3^fd3ed2 c2B2  | c2d2 ^f_7/8eed dccB BAG4z2  | 
w:  TESLİM  |   | 
=c4 c2cd cBBc BAA2 G2F2  | E2F2 G2GF FEED DCD4z2  | 
w:   |   | 
|


